assets/Penguin/Flat/penguin_flat.svg

<svg width="32" height="32" viewBox="0 0 32 32" fill="none" xmlns="http://www.w3.org/2000/svg">
<path d="M16.0894 2.35547C20.1247 2.35547 23.9077 6.05437 24.244 9.71135C24.2769 10.0692 24.4577 10.9097 24.6925 11.9842C24.7071 11.9999 24.7217 12.0157 24.7362 12.0317C26.1895 13.6326 31.399 20.7448 29.4212 22.7226C28.7674 23.3764 27.3515 22.9572 25.7745 22.103C25.4947 23.2756 24.9907 24.4027 24.3078 25.4209L24 29C24 29 18.0119 30.0748 15.8401 30.0441C13.759 30.014 7.99999 29 7.99999 29L7.63796 25.4209C6.97071 24.4137 6.4758 23.2946 6.19555 22.1191C4.63063 22.9624 3.22844 23.3723 2.57878 22.7226C0.652513 20.7963 5.54391 13.9997 7.14268 12.1679C7.22474 11.7767 7.30203 11.4135 7.37089 11.0899C7.50924 10.4398 7.61363 9.94926 7.65462 9.71135C8.29914 5.97039 11.5778 2.35547 16.0894 2.35547Z" fill="#533566"/>
<path d="M21.4495 14.1392C22.039 13.2012 22.3722 11.9856 22.3722 10.4654C22.3722 7.43719 19.3564 4.54408 17.2524 4.54408C16.9726 4.54408 16.8744 4.84669 16.7671 5.17756C16.6376 5.57661 16.4948 6.01677 16.004 6.01677C15.5026 6.01677 15.3381 5.55739 15.1929 5.15175C15.0781 4.83106 14.9753 4.54395 14.7275 4.54395C12.6375 4.54395 9.56567 7.36334 9.56567 10.4654C9.56567 12.0121 9.90454 13.22 10.4852 14.142C8.87737 15.6006 7.87 17.6921 7.87 20.0154C7.87 24.4234 11.496 27.9967 15.9689 27.9967C20.4419 27.9967 24.0679 24.4234 24.0679 20.0154C24.0679 17.6906 23.0592 15.5979 21.4495 14.1392Z" fill="white"/>
<path d="M13 13.0158H19.0175C19.0175 11.3566 17.656 10 16.0036 10C14.3511 10 13 11.3461 13 13.0158Z" fill="#FF822D"/>
<path d="M6.40439 29.596C6.47473 28.0675 6.90235 26.6319 7.60534 25.3713C9.37868 28.081 12.3952 29.9942 15.8401 30.044C19.3791 30.094 22.5007 28.1338 24.327 25.3921C25.0231 26.6477 25.4464 28.0759 25.5164 29.596C25.5278 29.8437 25.3257 30.045 25.0778 30.045H6.84294C6.59504 30.045 6.39299 29.8437 6.40439 29.596Z" fill="#FF822D"/>
<path d="M14 8.19444C14 8.47222 14.2222 8.69444 14.5 8.69444C14.7778 8.69444 15 8.47222 15 8.19444V7.5C15 7.22222 14.7778 7 14.5 7C14.2222 7 14 7.22222 14 7.5V8.19444Z" fill="#1C1C1C"/>
<path d="M17 8.19444C17 8.47222 17.2222 8.69444 17.5 8.69444C17.7778 8.69444 18 8.47222 18 8.19444V7.5C18 7.22222 17.7778 7 17.5 7C17.2222 7 17 7.22222 17 7.5V8.19444Z" fill="#1C1C1C"/>
</svg>

<svg xmlns="http://www.w3.org/2000/svg" width="32" height="32" fill="none"><path fill="#533566" d="M16.09 2.355c4.035 0 7.818 3.7 8.154 7.356.033.358.214 1.199.448 2.273l.044.048c1.453 1.6 6.663 8.713 4.685 10.69-.654.654-2.07.235-3.646-.619-.28 1.173-.784 2.3-1.467 3.318L24 29s-5.988 1.075-8.16 1.044C13.76 30.014 8 29 8 29l-.362-3.58a10.334 10.334 0 0 1-1.442-3.3c-1.565.842-2.968 1.252-3.617.603C.653 20.796 5.544 14 7.143 12.168l.228-1.078c.138-.65.243-1.14.284-1.379.644-3.74 3.923-7.356 8.434-7.356Z"/><path fill="#fff" d="M21.45 14.14c.589-.939.922-2.154.922-3.675 0-3.028-3.016-5.92-5.12-5.92-.28 0-.378.302-.485.633-.13.399-.272.839-.763.839-.501 0-.666-.46-.811-.865-.115-.32-.218-.608-.466-.608-2.09 0-5.161 2.82-5.161 5.921 0 1.547.339 2.755.92 3.677a7.908 7.908 0 0 0-2.616 5.873c0 4.408 3.626 7.982 8.099 7.982 4.473 0 8.099-3.574 8.099-7.982a7.908 7.908 0 0 0-2.619-5.876Z"/><path fill="#FF822D" d="M13 13.016h6.017A3.027 3.027 0 0 0 16.005 10 3.011 3.011 0 0 0 13 13.016ZM6.404 29.596a9.557 9.557 0 0 1 1.201-4.225c1.774 2.71 4.79 4.623 8.235 4.673 3.54.05 6.66-1.91 8.487-4.652a9.558 9.558 0 0 1 1.19 4.204.433.433 0 0 1-.44.449H6.844a.433.433 0 0 1-.439-.449Z"/><path fill="#1C1C1C" d="M14 8.194c0 .278.222.5.5.5s.5-.222.5-.5V7.5c0-.278-.222-.5-.5-.5s-.5.222-.5.5v.694ZM17 8.194c0 .278.222.5.5.5s.5-.222.5-.5V7.5c0-.278-.222-.5-.5-.5s-.5.222-.5.5v.694Z"/></svg>
